X:802
T:Headlands, The 
C:Joe Buchanan's Scottish Tome - Page 023.0
I:023 0
C:Ronnie Cooper
R:Strathspey
Z:Carl Allison
L:1/8
M:2/4
K:A
(e>d) | "A" dc BA | "A" (A<c) "A7" (E>A) | "D" FA df | e2 "E7" (ef/g/) |
"A" a>e fa | "F#m" fe dc | "B7" c>B Ac | "E" B2 "E7" (ed) |
"A" dc BA | "A" (A<c) "A7" (E>A) | "D" FA df | "Adim" a2 (g>f) |
"A" ea Ac | "Bm" Bf "E7" ed | "A" c2 "D" A2 | "A"A3 :|
"E7"(ef/g/) | "A" a>e fa | "A" ce "A7" cA | "D" dA df | "A" e2 "E7" (ef/g/) |
"A" a>e fa | "F#m" fe "Bm" dc | "Bm" c>B Ac | "E" B2 "E7" (ef/g/) |
"A" a>e ea | "A" ce "A7" cA | "D" dA df | "Adim" a2 (g>f) |
"A" ea Ac | "A" Bf "E7" ed | "A" c2 "D" A2 | A2 "E7" (ef/g/) |
"A" a>e fa | "A" ce "A7" cA | "D" dA df | "A" e2 "E7" (ef/g/) |
"A" a>e fa | "F#m" fe dc | "Bm" cB Ac | "E" B2 "E7" (e>d) |
"A" dc BA | "A" (A<c) "A7" (E>A) | "D" FA df | "Adim" a2 (g>f) |
"A" ea Ac | "Bm" Bf "E7" ed | "A" c2 "D" A2 | "A" A3 |]
%
W:Errata: Added chords to last six lines.

